images/3234065.svg

<?xml version="1.0" encoding="UTF-8"?>
<svg xmlns="http://www.w3.org/2000/svg" xmlns:xlink="http://www.w3.org/1999/xlink" width="300pt" height="300pt" viewBox="0 0 300 300" version="1.1">
<defs>
<g>
<symbol overflow="visible" id="glyph0-0">
<path style="stroke:none;" d="M 0.453125 1.59375 L 0.453125 -6.34375 L 4.953125 -6.34375 L 4.953125 1.59375 Z M 0.953125 1.09375 L 4.453125 1.09375 L 4.453125 -5.84375 L 0.953125 -5.84375 Z M 0.953125 1.09375 "/>
</symbol>
<symbol overflow="visible" id="glyph0-1">
<path style="stroke:none;" d="M 0.890625 -6.5625 L 2.078125 -6.5625 L 4.984375 -1.078125 L 4.984375 -6.5625 L 5.84375 -6.5625 L 5.84375 0 L 4.65625 0 L 1.75 -5.484375 L 1.75 0 L 0.890625 0 Z M 0.890625 -6.5625 "/>
</symbol>
<symbol overflow="visible" id="glyph0-2">
<path style="stroke:none;" d="M 0.890625 -6.5625 L 1.765625 -6.5625 L 1.765625 -3.875 L 5 -3.875 L 5 -6.5625 L 5.890625 -6.5625 L 5.890625 0 L 5 0 L 5 -3.125 L 1.765625 -3.125 L 1.765625 0 L 0.890625 0 Z M 0.890625 -6.5625 "/>
</symbol>
<symbol overflow="visible" id="glyph0-3">
<path style="stroke:none;" d="M 3.546875 -5.953125 C 2.898438 -5.953125 2.382812 -5.710938 2 -5.234375 C 1.625 -4.753906 1.4375 -4.101562 1.4375 -3.28125 C 1.4375 -2.445312 1.625 -1.789062 2 -1.3125 C 2.382812 -0.832031 2.898438 -0.59375 3.546875 -0.59375 C 4.191406 -0.59375 4.703125 -0.832031 5.078125 -1.3125 C 5.453125 -1.789062 5.640625 -2.445312 5.640625 -3.28125 C 5.640625 -4.101562 5.453125 -4.753906 5.078125 -5.234375 C 4.703125 -5.710938 4.191406 -5.953125 3.546875 -5.953125 Z M 3.546875 -6.6875 C 4.460938 -6.6875 5.195312 -6.375 5.75 -5.75 C 6.300781 -5.132812 6.578125 -4.3125 6.578125 -3.28125 C 6.578125 -2.238281 6.300781 -1.410156 5.75 -0.796875 C 5.195312 -0.179688 4.460938 0.125 3.546875 0.125 C 2.617188 0.125 1.878906 -0.179688 1.328125 -0.796875 C 0.773438 -1.410156 0.5 -2.238281 0.5 -3.28125 C 0.5 -4.3125 0.773438 -5.132812 1.328125 -5.75 C 1.878906 -6.375 2.617188 -6.6875 3.546875 -6.6875 Z M 3.546875 -6.6875 "/>
</symbol>
</g>
</defs>
<g id="surface35449">
<rect x="0" y="0" width="300" height="300" style="fill:rgb(100%,100%,100%);fill-opacity:1;stroke:none;"/>
<path style="fill:none;stroke-width:1.2;stroke-linecap:butt;stroke-linejoin:miter;stroke:rgb(0%,0%,0%);stroke-opacity:1;stroke-miterlimit:10;" d="M 250.410156 189.625 L 249.726562 180.160156 "/>
<path style="fill:none;stroke-width:1.2;stroke-linecap:butt;stroke-linejoin:miter;stroke:rgb(0%,0%,100%);stroke-opacity:1;stroke-miterlimit:10;" d="M 249.726562 180.160156 L 249.042969 170.695312 "/>
<path style="fill:none;stroke-width:1.2;stroke-linecap:butt;stroke-linejoin:miter;stroke:rgb(0%,0%,100%);stroke-opacity:1;stroke-miterlimit:10;" d="M 249.042969 170.695312 L 256.894531 165.371094 "/>
<path style="fill:none;stroke-width:1.2;stroke-linecap:butt;stroke-linejoin:miter;stroke:rgb(0%,0%,0%);stroke-opacity:1;stroke-miterlimit:10;" d="M 256.894531 165.371094 L 264.75 160.046875 "/>
<path style="fill:none;stroke-width:1.2;stroke-linecap:butt;stroke-linejoin:miter;stroke:rgb(0%,0%,100%);stroke-opacity:1;stroke-miterlimit:10;" d="M 249.042969 170.695312 L 240.503906 166.558594 "/>
<path style="fill:none;stroke-width:1.2;stroke-linecap:butt;stroke-linejoin:miter;stroke:rgb(0%,0%,0%);stroke-opacity:1;stroke-miterlimit:10;" d="M 240.503906 166.558594 L 231.964844 162.417969 "/>
<path style=" stroke:none;fill-rule:nonzero;fill:rgb(100%,100%,100%);fill-opacity:1;" d="M 246.042969 165.195312 L 253.042969 165.195312 L 253.042969 176.195312 L 246.042969 176.195312 Z M 246.042969 165.195312 "/>
<g style="fill:rgb(0%,0%,100%);fill-opacity:1;">
  <use xlink:href="#glyph0-1" x="246.042969" y="173.858398"/>
</g>
<path style="fill:none;stroke-width:1.2;stroke-linecap:butt;stroke-linejoin:miter;stroke:rgb(0%,0%,0%);stroke-opacity:1;stroke-miterlimit:10;" d="M 231.964844 162.417969 L 216.257812 173.066406 "/>
<path style="fill:none;stroke-width:1.2;stroke-linecap:butt;stroke-linejoin:miter;stroke:rgb(0%,0%,0%);stroke-opacity:1;stroke-miterlimit:10;" d="M 227.886719 159.789062 L 215.320312 168.308594 "/>
<path style="fill:none;stroke-width:1.2;stroke-linecap:butt;stroke-linejoin:miter;stroke:rgb(0%,0%,0%);stroke-opacity:1;stroke-miterlimit:10;" d="M 230.59375 143.488281 L 231.964844 162.417969 "/>
<path style="fill:none;stroke-width:1.2;stroke-linecap:butt;stroke-linejoin:miter;stroke:rgb(0%,0%,0%);stroke-opacity:1;stroke-miterlimit:10;" d="M 216.257812 173.066406 L 199.179688 164.789062 "/>
<path style="fill:none;stroke-width:1.2;stroke-linecap:butt;stroke-linejoin:miter;stroke:rgb(0%,0%,0%);stroke-opacity:1;stroke-miterlimit:10;" d="M 199.179688 164.789062 L 197.808594 145.859375 "/>
<path style="fill:none;stroke-width:1.2;stroke-linecap:butt;stroke-linejoin:miter;stroke:rgb(0%,0%,0%);stroke-opacity:1;stroke-miterlimit:10;" d="M 203.496094 162.574219 L 202.398438 147.429688 "/>
<path style="fill:none;stroke-width:1.2;stroke-linecap:butt;stroke-linejoin:miter;stroke:rgb(0%,0%,0%);stroke-opacity:1;stroke-miterlimit:10;" d="M 197.808594 145.859375 L 213.519531 135.210938 "/>
<path style="fill:none;stroke-width:1.2;stroke-linecap:butt;stroke-linejoin:miter;stroke:rgb(0%,0%,0%);stroke-opacity:1;stroke-miterlimit:10;" d="M 197.808594 145.859375 L 180.730469 137.582031 "/>
<path style="fill:none;stroke-width:1.2;stroke-linecap:butt;stroke-linejoin:miter;stroke:rgb(0%,0%,0%);stroke-opacity:1;stroke-miterlimit:10;" d="M 213.519531 135.210938 L 230.59375 143.488281 "/>
<path style="fill:none;stroke-width:1.2;stroke-linecap:butt;stroke-linejoin:miter;stroke:rgb(0%,0%,0%);stroke-opacity:1;stroke-miterlimit:10;" d="M 213.277344 140.058594 L 226.941406 146.679688 "/>
<path style="fill:none;stroke-width:1.2;stroke-linecap:butt;stroke-linejoin:miter;stroke:rgb(0%,0%,0%);stroke-opacity:1;stroke-miterlimit:10;" d="M 180.730469 137.582031 L 180.046875 128.117188 "/>
<path style="fill:none;stroke-width:1.2;stroke-linecap:butt;stroke-linejoin:miter;stroke:rgb(0%,0%,100%);stroke-opacity:1;stroke-miterlimit:10;" d="M 180.046875 128.117188 L 179.363281 118.652344 "/>
<path style="fill:none;stroke-width:1.2;stroke-linecap:butt;stroke-linejoin:miter;stroke:rgb(0%,0%,0%);stroke-opacity:1;stroke-miterlimit:10;" d="M 176.140625 136.011719 L 175.59375 128.4375 "/>
<path style="fill:none;stroke-width:1.2;stroke-linecap:butt;stroke-linejoin:miter;stroke:rgb(0%,0%,100%);stroke-opacity:1;stroke-miterlimit:10;" d="M 175.59375 128.4375 L 175.046875 120.867188 "/>
<path style="fill:none;stroke-width:1.2;stroke-linecap:butt;stroke-linejoin:miter;stroke:rgb(0%,0%,100%);stroke-opacity:1;stroke-miterlimit:10;" d="M 165.023438 148.230469 L 172.878906 142.90625 "/>
<path style="fill:none;stroke-width:1.2;stroke-linecap:butt;stroke-linejoin:miter;stroke:rgb(0%,0%,0%);stroke-opacity:1;stroke-miterlimit:10;" d="M 172.878906 142.90625 L 180.730469 137.582031 "/>
<path style="fill:none;stroke-width:1.2;stroke-linecap:butt;stroke-linejoin:miter;stroke:rgb(0%,0%,100%);stroke-opacity:1;stroke-miterlimit:10;" d="M 179.363281 118.652344 L 170.824219 114.511719 "/>
<path style="fill:none;stroke-width:1.2;stroke-linecap:butt;stroke-linejoin:miter;stroke:rgb(0%,0%,0%);stroke-opacity:1;stroke-miterlimit:10;" d="M 170.824219 114.511719 L 162.285156 110.375 "/>
<path style=" stroke:none;fill-rule:nonzero;fill:rgb(100%,100%,100%);fill-opacity:1;" d="M 176.363281 113.152344 L 183.363281 113.152344 L 183.363281 124.152344 L 176.363281 124.152344 Z M 176.363281 113.152344 "/>
<g style="fill:rgb(0%,0%,100%);fill-opacity:1;">
  <use xlink:href="#glyph0-1" x="176.363281" y="121.81543"/>
</g>
<path style="fill:none;stroke-width:1.2;stroke-linecap:butt;stroke-linejoin:miter;stroke:rgb(0%,0%,0%);stroke-opacity:1;stroke-miterlimit:10;" d="M 162.285156 110.375 L 146.578125 121.023438 "/>
<path style="fill:none;stroke-width:1.2;stroke-linecap:butt;stroke-linejoin:miter;stroke:rgb(0%,0%,0%);stroke-opacity:1;stroke-miterlimit:10;" d="M 163.222656 115.136719 L 150.652344 123.65625 "/>
<path style="fill:none;stroke-width:1.2;stroke-linecap:butt;stroke-linejoin:miter;stroke:rgb(0%,0%,0%);stroke-opacity:1;stroke-miterlimit:10;" d="M 146.578125 121.023438 L 147.945312 139.953125 "/>
<path style="fill:none;stroke-width:1.2;stroke-linecap:butt;stroke-linejoin:miter;stroke:rgb(0%,0%,0%);stroke-opacity:1;stroke-miterlimit:10;" d="M 147.945312 139.953125 L 156.484375 144.09375 "/>
<path style="fill:none;stroke-width:1.2;stroke-linecap:butt;stroke-linejoin:miter;stroke:rgb(0%,0%,100%);stroke-opacity:1;stroke-miterlimit:10;" d="M 156.484375 144.09375 L 165.023438 148.230469 "/>
<path style="fill:none;stroke-width:1.2;stroke-linecap:butt;stroke-linejoin:miter;stroke:rgb(0%,0%,0%);stroke-opacity:1;stroke-miterlimit:10;" d="M 151.601562 136.761719 L 158.433594 140.074219 "/>
<path style="fill:none;stroke-width:1.2;stroke-linecap:butt;stroke-linejoin:miter;stroke:rgb(0%,0%,100%);stroke-opacity:1;stroke-miterlimit:10;" d="M 158.433594 140.074219 L 165.265625 143.386719 "/>
<path style="fill:none;stroke-width:1.2;stroke-linecap:butt;stroke-linejoin:miter;stroke:rgb(0%,0%,0%);stroke-opacity:1;stroke-miterlimit:10;" d="M 147.945312 139.953125 L 140.09375 145.277344 "/>
<path style="fill:none;stroke-width:1.2;stroke-linecap:butt;stroke-linejoin:miter;stroke:rgb(0%,0%,100%);stroke-opacity:1;stroke-miterlimit:10;" d="M 140.09375 145.277344 L 132.238281 150.601562 "/>
<path style=" stroke:none;fill-rule:nonzero;fill:rgb(100%,100%,100%);fill-opacity:1;" d="M 162.023438 142.730469 L 169.023438 142.730469 L 169.023438 153.730469 L 162.023438 153.730469 Z M 162.023438 142.730469 "/>
<g style="fill:rgb(0%,0%,100%);fill-opacity:1;">
  <use xlink:href="#glyph0-1" x="162.023438" y="151.393555"/>
</g>
<path style="fill:none;stroke-width:1.2;stroke-linecap:butt;stroke-linejoin:miter;stroke:rgb(0%,0%,100%);stroke-opacity:1;stroke-miterlimit:10;" d="M 132.238281 150.601562 L 123.699219 146.464844 "/>
<path style="fill:none;stroke-width:1.2;stroke-linecap:butt;stroke-linejoin:miter;stroke:rgb(0%,0%,0%);stroke-opacity:1;stroke-miterlimit:10;" d="M 123.699219 146.464844 L 115.160156 142.324219 "/>
<path style=" stroke:none;fill-rule:nonzero;fill:rgb(100%,100%,100%);fill-opacity:1;" d="M 125.238281 145.101562 L 139.238281 145.101562 L 139.238281 156.101562 L 125.238281 156.101562 Z M 125.238281 145.101562 "/>
<g style="fill:rgb(0%,0%,100%);fill-opacity:1;">
  <use xlink:href="#glyph0-1" x="125.238281" y="153.764648"/>
  <use xlink:href="#glyph0-2" x="132.21582" y="153.764648"/>
</g>
<path style="fill:none;stroke-width:1.2;stroke-linecap:butt;stroke-linejoin:miter;stroke:rgb(0%,0%,0%);stroke-opacity:1;stroke-miterlimit:10;" d="M 115.160156 142.324219 L 99.453125 152.972656 "/>
<path style="fill:none;stroke-width:1.2;stroke-linecap:butt;stroke-linejoin:miter;stroke:rgb(0%,0%,0%);stroke-opacity:1;stroke-miterlimit:10;" d="M 99.453125 152.972656 L 82.375 144.695312 "/>
<path style="fill:none;stroke-width:1.2;stroke-linecap:butt;stroke-linejoin:miter;stroke:rgb(0%,0%,0%);stroke-opacity:1;stroke-miterlimit:10;" d="M 95.796875 156.164062 L 82.136719 149.542969 "/>
<path style="fill:none;stroke-width:1.2;stroke-linecap:butt;stroke-linejoin:miter;stroke:rgb(0%,0%,0%);stroke-opacity:1;stroke-miterlimit:10;" d="M 100.820312 171.902344 L 99.453125 152.972656 "/>
<path style="fill:none;stroke-width:1.2;stroke-linecap:butt;stroke-linejoin:miter;stroke:rgb(0%,0%,0%);stroke-opacity:1;stroke-miterlimit:10;" d="M 82.375 144.695312 L 66.667969 155.34375 "/>
<path style="fill:none;stroke-width:1.2;stroke-linecap:butt;stroke-linejoin:miter;stroke:rgb(0%,0%,0%);stroke-opacity:1;stroke-miterlimit:10;" d="M 82.375 144.695312 L 81.691406 135.230469 "/>
<path style="fill:none;stroke-width:1.2;stroke-linecap:butt;stroke-linejoin:miter;stroke:rgb(100%,0%,0%);stroke-opacity:1;stroke-miterlimit:10;" d="M 81.691406 135.230469 L 81.007812 125.765625 "/>
<path style="fill:none;stroke-width:1.2;stroke-linecap:butt;stroke-linejoin:miter;stroke:rgb(0%,0%,0%);stroke-opacity:1;stroke-miterlimit:10;" d="M 66.667969 155.34375 L 68.035156 174.273438 "/>
<path style="fill:none;stroke-width:1.2;stroke-linecap:butt;stroke-linejoin:miter;stroke:rgb(0%,0%,0%);stroke-opacity:1;stroke-miterlimit:10;" d="M 71.257812 156.917969 L 72.351562 172.058594 "/>
<path style="fill:none;stroke-width:1.2;stroke-linecap:butt;stroke-linejoin:miter;stroke:rgb(0%,0%,0%);stroke-opacity:1;stroke-miterlimit:10;" d="M 68.035156 174.273438 L 85.113281 182.554688 "/>
<path style="fill:none;stroke-width:1.2;stroke-linecap:butt;stroke-linejoin:miter;stroke:rgb(0%,0%,0%);stroke-opacity:1;stroke-miterlimit:10;" d="M 68.035156 174.273438 L 60.179688 179.597656 "/>
<path style="fill:none;stroke-width:1.2;stroke-linecap:butt;stroke-linejoin:miter;stroke:rgb(100%,0%,0%);stroke-opacity:1;stroke-miterlimit:10;" d="M 60.179688 179.597656 L 52.328125 184.925781 "/>
<path style="fill:none;stroke-width:1.2;stroke-linecap:butt;stroke-linejoin:miter;stroke:rgb(0%,0%,0%);stroke-opacity:1;stroke-miterlimit:10;" d="M 85.113281 182.554688 L 100.820312 171.902344 "/>
<path style="fill:none;stroke-width:1.2;stroke-linecap:butt;stroke-linejoin:miter;stroke:rgb(0%,0%,0%);stroke-opacity:1;stroke-miterlimit:10;" d="M 84.179688 177.792969 L 96.746094 169.273438 "/>
<path style="fill:none;stroke-width:1.2;stroke-linecap:butt;stroke-linejoin:miter;stroke:rgb(100%,0%,0%);stroke-opacity:1;stroke-miterlimit:10;" d="M 52.328125 184.925781 L 43.789062 180.785156 "/>
<path style="fill:none;stroke-width:1.2;stroke-linecap:butt;stroke-linejoin:miter;stroke:rgb(0%,0%,0%);stroke-opacity:1;stroke-miterlimit:10;" d="M 43.789062 180.785156 L 35.25 176.644531 "/>
<path style=" stroke:none;fill-rule:nonzero;fill:rgb(100%,100%,100%);fill-opacity:1;" d="M 48.328125 179.425781 L 56.328125 179.425781 L 56.328125 190.425781 L 48.328125 190.425781 Z M 48.328125 179.425781 "/>
<g style="fill:rgb(100%,0%,0%);fill-opacity:1;">
  <use xlink:href="#glyph0-3" x="48.328125" y="188.088867"/>
</g>
<path style="fill:none;stroke-width:1.2;stroke-linecap:butt;stroke-linejoin:miter;stroke:rgb(100%,0%,0%);stroke-opacity:1;stroke-miterlimit:10;" d="M 81.007812 125.765625 L 72.46875 121.628906 "/>
<path style="fill:none;stroke-width:1.2;stroke-linecap:butt;stroke-linejoin:miter;stroke:rgb(0%,0%,0%);stroke-opacity:1;stroke-miterlimit:10;" d="M 72.46875 121.628906 L 63.929688 117.488281 "/>
<path style=" stroke:none;fill-rule:nonzero;fill:rgb(100%,100%,100%);fill-opacity:1;" d="M 77.007812 120.265625 L 85.007812 120.265625 L 85.007812 131.265625 L 77.007812 131.265625 Z M 77.007812 120.265625 "/>
<g style="fill:rgb(100%,0%,0%);fill-opacity:1;">
  <use xlink:href="#glyph0-3" x="77.007812" y="128.928711"/>
</g>
</g>
</svg>

<svg xmlns="http://www.w3.org/2000/svg" xmlns:xlink="http://www.w3.org/1999/xlink" width="300pt" height="300pt" viewBox="0 0 300 300"><defs><symbol overflow="visible"><path d="M.453 1.594v-7.938h4.5v7.938zm.5-.5h3.5v-6.938h-3.5zm0 0"/></symbol><symbol overflow="visible" id="a"><path d="M.89-6.563H2.08l2.906 5.485v-5.484h.86V0H4.656L1.75-5.484V0H.89zm0 0"/></symbol><symbol overflow="visible" id="b"><path d="M.89-6.563h.876v2.688H5v-2.688h.89V0H5v-3.125H1.766V0H.89zm0 0"/></symbol><symbol overflow="visible" id="c"><path d="M3.547-5.953c-.65 0-1.164.242-1.547.72-.375.48-.563 1.13-.563 1.952 0 .835.188 1.49.563 1.967.383.48.898.72 1.547.72.644 0 1.156-.24 1.53-.72.376-.476.564-1.132.564-1.968 0-.822-.187-1.474-.562-1.954-.375-.477-.887-.72-1.53-.72zm0-.734c.914 0 1.648.312 2.203.937.55.617.828 1.438.828 2.47 0 1.042-.277 1.87-.828 2.483-.555.617-1.29.922-2.203.922-.93 0-1.668-.305-2.22-.922C.774-1.41.5-2.237.5-3.28c0-1.033.273-1.853.828-2.47.55-.625 1.29-.938 2.22-.938zm0 0"/></symbol></defs><g><path fill="#fff" d="M0 0h300v300H0z"/><path d="M250.41 189.625l-.683-9.465" stroke-width="1.2" stroke="#000" stroke-miterlimit="10" fill="none"/><path d="M249.727 180.16l-.684-9.465M249.043 170.695l7.852-5.324" stroke-width="1.2" stroke="#00f" stroke-miterlimit="10" fill="none"/><path d="M256.895 165.37l7.855-5.323" stroke-width="1.2" stroke="#000" stroke-miterlimit="10" fill="none"/><path d="M249.043 170.695l-8.54-4.136" stroke-width="1.2" stroke="#00f" stroke-miterlimit="10" fill="none"/><path d="M240.504 166.56l-8.54-4.142" stroke-width="1.2" stroke="#000" stroke-miterlimit="10" fill="none"/><path d="M246.043 165.195h7v11h-7zm0 0" fill="#fff"/><use xlink:href="#a" x="246.043" y="173.858" fill="#00f"/><path d="M231.965 162.418l-15.707 10.648M227.887 159.79l-12.567 8.52M230.594 143.488l1.37 18.93M216.258 173.066l-17.078-8.277M199.18 164.79l-1.37-18.93M203.496 162.574l-1.098-15.144M197.81 145.86l15.71-10.65M197.81 145.86l-17.08-8.278M213.52 135.21l17.074 8.278M213.277 140.06l13.664 6.62M180.73 137.582l-.683-9.465" stroke-width="1.2" stroke="#000" stroke-miterlimit="10" fill="none"/><path d="M180.047 128.117l-.684-9.465" stroke-width="1.2" stroke="#00f" stroke-miterlimit="10" fill="none"/><path d="M176.14 136.012l-.546-7.575" stroke-width="1.2" stroke="#000" stroke-miterlimit="10" fill="none"/><path d="M175.594 128.438l-.547-7.57M165.023 148.23l7.856-5.324" stroke-width="1.2" stroke="#00f" stroke-miterlimit="10" fill="none"/><path d="M172.88 142.906l7.85-5.324" stroke-width="1.2" stroke="#000" stroke-miterlimit="10" fill="none"/><path d="M179.363 118.652l-8.54-4.14" stroke-width="1.2" stroke="#00f" stroke-miterlimit="10" fill="none"/><path d="M170.824 114.512l-8.54-4.137" stroke-width="1.2" stroke="#000" stroke-miterlimit="10" fill="none"/><path d="M176.363 113.152h7v11h-7zm0 0" fill="#fff"/><use xlink:href="#a" x="176.363" y="121.815" fill="#00f"/><path d="M162.285 110.375l-15.707 10.648M163.223 115.137l-12.57 8.52M146.578 121.023l1.367 18.93M147.945 139.953l8.54 4.14" stroke-width="1.2" stroke="#000" stroke-miterlimit="10" fill="none"/><path d="M156.484 144.094l8.54 4.136" stroke-width="1.2" stroke="#00f" stroke-miterlimit="10" fill="none"/><path d="M151.602 136.762l6.832 3.312" stroke-width="1.2" stroke="#000" stroke-miterlimit="10" fill="none"/><path d="M158.434 140.074l6.832 3.313" stroke-width="1.2" stroke="#00f" stroke-miterlimit="10" fill="none"/><path d="M147.945 139.953l-7.85 5.324" stroke-width="1.2" stroke="#000" stroke-miterlimit="10" fill="none"/><path d="M140.094 145.277l-7.856 5.325" stroke-width="1.2" stroke="#00f" stroke-miterlimit="10" fill="none"/><path d="M162.023 142.73h7v11h-7zm0 0" fill="#fff"/><use xlink:href="#a" x="162.023" y="151.394" fill="#00f"/><path d="M132.238 150.602l-8.54-4.137" stroke-width="1.2" stroke="#00f" stroke-miterlimit="10" fill="none"/><path d="M123.7 146.465l-8.54-4.14" stroke-width="1.2" stroke="#000" stroke-miterlimit="10" fill="none"/><path d="M125.238 145.102h14v11h-14zm0 0" fill="#fff"/><g fill="#00f"><use xlink:href="#a" x="125.238" y="153.765"/><use xlink:href="#b" x="132.216" y="153.765"/></g><path d="M115.16 142.324l-15.707 10.65M99.453 152.973l-17.078-8.278M95.797 156.164l-13.66-6.62M100.82 171.902l-1.367-18.93M82.375 144.695l-15.707 10.65M82.375 144.695l-.684-9.465" stroke-width="1.2" stroke="#000" stroke-miterlimit="10" fill="none"/><path d="M81.69 135.23l-.682-9.464" stroke-width="1.2" stroke="#f00" stroke-miterlimit="10" fill="none"/><path d="M66.668 155.344l1.367 18.93M71.258 156.918l1.094 15.14M68.035 174.273l17.078 8.282M68.035 174.273l-7.855 5.325" stroke-width="1.2" stroke="#000" stroke-miterlimit="10" fill="none"/><path d="M60.18 179.598l-7.852 5.328" stroke-width="1.2" stroke="#f00" stroke-miterlimit="10" fill="none"/><path d="M85.113 182.555l15.707-10.653M84.18 177.793l12.566-8.52" stroke-width="1.2" stroke="#000" stroke-miterlimit="10" fill="none"/><path d="M52.328 184.926l-8.54-4.14" stroke-width="1.2" stroke="#f00" stroke-miterlimit="10" fill="none"/><path d="M43.79 180.785l-8.54-4.14" stroke-width="1.2" stroke="#000" stroke-miterlimit="10" fill="none"/><path d="M48.328 179.426h8v11h-8zm0 0" fill="#fff"/><use xlink:href="#c" x="48.328" y="188.089" fill="#f00"/><path d="M81.008 125.766l-8.54-4.137" stroke-width="1.2" stroke="#f00" stroke-miterlimit="10" fill="none"/><path d="M72.47 121.63l-8.54-4.142" stroke-width="1.2" stroke="#000" stroke-miterlimit="10" fill="none"/><path d="M77.008 120.266h8v11h-8zm0 0" fill="#fff"/><use xlink:href="#c" x="77.008" y="128.929" fill="#f00"/></g></svg>
